svg/u1f4a9.svg

<svg viewBox="0 0 128 128" xmlns="http://www.w3.org/2000/svg">
  <g id="faces">
    <path id="pile-of-poo-face" d="M118.89,75.13c-1.46-3.15-3.92-5.73-7-7.33c-1.86-1.16-3.88-2.05-6-2.63 c1.53-5.6-0.64-10.06-3.69-13.39c-4.51-4.88-9.2-5.59-9.2-5.59l0,0c1.62-3.07,2.11-6.61,1.36-10c-0.77-3.69-3.08-6.86-6.36-8.72 c-3.1-1.83-6.92-2.73-10.84-3.47c-1.88-0.34-9.81-1.45-13.1-6c-2.65-3.69-2.73-10.33-3.45-12.32s-3.38-1.15-6.23,0.76 C51.05,8.7,44.15,15.83,41.49,23c-1.76,4.41-2.2,9.23-1.28,13.89c-2.14,0.35-4.23,0.97-6.21,1.85c-0.16,0-0.32,0.1-0.49,0.17 c-3,1.24-9.43,7-10,15.85c-0.21,3.13,0.19,6.26,1.17,9.24c-2.19,0.57-4.3,1.43-6.26,2.57c-2.29,0.98-4.38,2.38-6.15,4.13 c-1.95,2.41-3.37,5.2-4.15,8.2c-1.81,6.61-1.1,13.66,2,19.77c1.8,3.47,4.06,6.67,6.74,9.52c8.55,8.79,23.31,12.11,35,14 c14.19,2.34,29.05,1.52,42.33-4c19.92-8.22,25.22-21.44,26-25.17C121.92,84.77,119.8,77,118.89,75.13z" fill="#885742"/>
  </g>
  <g id="facial_expressions">
    <g id="pile-of-poo">
      <g id="mouth">
        <path d="M87.45,92.89c-1.57,0.8-3.17,1.52-4.78,2.16c-1.08,0.43-2.17,0.82-3.27,1.17 c-1.1,0.36-2.21,0.67-3.33,1c-2.24,0.56-4.52,0.97-6.82,1.21c-1.74,0.19-3.5,0.28-5.25,0.28c-4.62,0-9.22-0.65-13.67-1.91 l-1.46-0.44c-2.45-0.78-4.84-1.73-7.15-2.84l-1.39-0.69c1.66,6.79,6.35,12.43,12.72,15.31c3.43,1.59,7.17,2.4,10.95,2.38 c3.82,0.03,7.6-0.75,11.09-2.31c6.43-2.83,11.11-8.57,12.58-15.44L87.45,92.89z" fill="#35220B"/>
        <path d="M85.19,90c-7,1.23-14.09,1.82-21.19,1.77c-7.1,0.04-14.19-0.55-21.19-1.77 c-1.17-0.23-2.3,0.54-2.53,1.71c-0.05,0.27-0.05,0.56,0,0.83c0,0.08,0,0.16,0,0.25c7.32,3.83,15.46,5.84,23.72,5.87 c1.75,0,3.51-0.09,5.25-0.28c2.3-0.24,4.58-0.65,6.82-1.21c1.12-0.28,2.23-0.59,3.33-1s2.19-0.74,3.27-1.17 c1.62-0.67,3.21-1.39,4.78-2.16l0.22-0.12l0.06-0.27c0.17-1.19-0.66-2.29-1.86-2.46C85.65,89.96,85.42,89.96,85.19,90z" fill="#FFFFFF"/>
      </g>
      <g id="eyes">
        <circle cx="80.13" cy="69.49" fill="#FFFFFF" r="12.4"/>
        <ellipse cx="80.13" cy="69.49" fill="#35220B" rx="5.73" ry="5.82"/>
        <circle cx="47.87" cy="69.49" fill="#FFFFFF" r="12.4"/>
        <ellipse cx="47.87" cy="69.49" fill="#35220B" rx="5.73" ry="5.82"/>
      </g>
    </g>
  </g>
</svg>

<svg viewBox="0 0 128 128" xmlns="http://www.w3.org/2000/svg">
  <defs/>
  <path id="pile-of-poo-face" d="M118.89,75.13 C117.43,71.98 114.97,69.4 111.89,67.8 C110.03,66.64 108.01,65.75 105.89,65.17 C107.42,59.57 105.25,55.11 102.2,51.78 C97.69,46.9 93,46.19 93,46.19 L93,46.19 C94.62,43.12 95.11,39.58 94.36,36.19 C93.59,32.5 91.28,29.33 88,27.47 C84.9,25.64 81.08,24.74 77.16,24 C75.28,23.66 67.35,22.55 64.06,18 C61.41,14.31 61.33,7.67 60.61,5.68 C59.89,3.69 57.23,4.53 54.38,6.44 C51.05,8.7 44.15,15.83 41.49,23 C39.73,27.41 39.29,32.23 40.21,36.89 C38.07,37.24 35.98,37.86 34,38.74 C33.84,38.74 33.68,38.84 33.51,38.91 C30.51,40.15 24.08,45.91 23.51,54.76 C23.3,57.89 23.7,61.02 24.68,64 C22.49,64.57 20.38,65.43 18.42,66.57 C16.13,67.55 14.04,68.95 12.27,70.7 C10.32,73.11 8.9,75.9 8.12,78.9 C6.31,85.51 7.02,92.56 10.12,98.67 C11.92,102.14 14.18,105.34 16.86,108.19 C25.41,116.98 40.17,120.3 51.86,122.19 C66.05,124.53 80.91,123.71 94.19,118.19 C114.11,109.97 119.41,96.75 120.19,93.02 C121.92,84.77 119.8,77 118.89,75.13 Z" fill="#885742"/>
  <path d="M87.45,92.89 C85.88,93.69 84.28,94.41 82.67,95.05 C81.59,95.48 80.5,95.87 79.4,96.22 C78.3,96.58 77.19,96.89 76.07,97.22 C73.83,97.78 71.55,98.19 69.25,98.43 C67.51,98.62 65.75,98.71 64,98.71 C59.38,98.71 54.78,98.06 50.33,96.8 L48.87,96.36 C46.42,95.58 44.03,94.63 41.72,93.52 L40.33,92.83 C41.99,99.62 46.68,105.26 53.05,108.14 C56.48,109.73 60.22,110.54 64,110.52 C67.82,110.55 71.6,109.77 75.09,108.21 C81.52,105.38 86.2,99.64 87.67,92.77 L87.45,92.89 Z" fill="#35220B"/>
  <path d="M85.19,90 C78.19,91.23 71.1,91.82 64,91.77 C56.9,91.81 49.81,91.22 42.81,90 C41.64,89.77 40.51,90.54 40.28,91.71 C40.23,91.98 40.23,92.27 40.28,92.54 C40.28,92.62 40.28,92.7 40.28,92.79 C47.6,96.62 55.74,98.63 64,98.66 C65.75,98.66 67.51,98.57 69.25,98.38 C71.55,98.14 73.83,97.73 76.07,97.17 C77.19,96.89 78.3,96.58 79.4,96.17 C80.5,95.76 81.59,95.43 82.67,95 C84.29,94.33 85.88,93.61 87.45,92.84 L87.67,92.72 L87.73,92.45 C87.9,91.26 87.07,90.16 85.87,89.99 C85.65,89.96 85.42,89.96 85.19,90 Z" fill="#FFFFFF"/>
  <path d="M92.53,69.49 A12.4 12.4 0 1 1 67.73,69.49 A12.4 12.4 0 1 1 92.53,69.49 Z" fill="#FFFFFF"/>
  <path d="M85.86,69.49 A5.73 5.82 0 1 1 74.4,69.49 A5.73 5.82 0 1 1 85.86,69.49 Z" fill="#35220B"/>
  <path d="M60.27,69.49 A12.4 12.4 0 1 1 35.47,69.49 A12.4 12.4 0 1 1 60.27,69.49 Z" fill="#FFFFFF"/>
  <path d="M53.6,69.49 A5.73 5.82 0 1 1 42.14,69.49 A5.73 5.82 0 1 1 53.6,69.49 Z" fill="#35220B"/>
</svg>
